src/16/panel/weather-snow-rain.svg

<svg xmlns="http://www.w3.org/2000/svg" width="16" height="16" version="1.1">
 <defs>
  <style id="current-color-scheme" type="text/css">
   .ColorScheme-Text { color:#dfdfdf; } .ColorScheme-Highlight { color:#4285f4; }
  </style>
 </defs>
 <path style="fill:currentColor" class="ColorScheme-Text" d="M 8,0.004 C 5.9289,0.004 4.1653,1.2719 3.4062,3.0665 1.4784,3.3531 0,4.9964 0,7.004 0,9.213 1.7909,11.004 4,11.004 H 12.5 C 14.433,11.004 16,9.437 16,7.504 16,5.7075 14.649,4.2353 12.906,4.0353 12.452,1.7419 10.427,0.004 8,0.004 Z M 3.4785,11.992 A 0.50005,0.50005 0 0 0 3.0527,12.275 L 2.0527,14.275 A 0.50025,0.50025 0 0 0 2.9473,14.723 L 3.9473,12.723 A 0.50005,0.50005 0 0 0 3.4785,11.992 Z M 6.4785,11.994 A 0.50005,0.50005 0 0 0 6.0527,12.277 L 5.0527,14.277 A 0.50025,0.50025 0 1 0 5.9473,14.725 L 6.9473,12.725 A 0.50005,0.50005 0 0 0 6.4785,11.994 Z M 11,12 A 1,1 0 0 0 10,13 1,1 0 0 0 11,14 1,1 0 0 0 12,13 1,1 0 0 0 11,12 Z M 9,14 A 1,1 0 0 0 8,15 1,1 0 0 0 9,16 1,1 0 0 0 10,15 1,1 0 0 0 9,14 Z M 13,14 A 1,1 0 0 0 12,15 1,1 0 0 0 13,16 1,1 0 0 0 14,15 1,1 0 0 0 13,14 Z"/>
</svg>

<svg xmlns="http://www.w3.org/2000/svg" width="16" height="16"><defs><style id="current-color-scheme" type="text/css">.ColorScheme-Text{color:#dfdfdf;}.ColorScheme-Highlight{color:#5294e2;}</style></defs><defs><style id="current-color-scheme" type="text/css"></style></defs><path d="M8 .004c-2.071 0-3.835 1.268-4.594 3.063A3.981 3.981 0 0 0 0 7.003a4 4 0 0 0 4 4h8.5a3.5 3.5 0 0 0 3.5-3.5 3.49 3.49 0 0 0-3.094-3.469A5.01 5.01 0 0 0 8 .004zM3.479 11.992a.5.5 0 0 0-.426.283l-1 2a.5.5 0 0 0 .894.448l1-2a.5.5 0 0 0-.469-.731zm3 .002a.5.5 0 0 0-.426.283l-1 2a.5.5 0 1 0 .894.448l1-2a.5.5 0 0 0-.468-.731zM11 12a1 1 0 0 0-1 1 1 1 0 0 0 1 1 1 1 0 0 0 1-1 1 1 0 0 0-1-1zm-2 2a1 1 0 0 0-1 1 1 1 0 0 0 1 1 1 1 0 0 0 1-1 1 1 0 0 0-1-1zm4 0a1 1 0 0 0-1 1 1 1 0 0 0 1 1 1 1 0 0 0 1-1 1 1 0 0 0-1-1z" fill="currentColor" class="ColorScheme-Text"/></svg>
